X: 18990
T: Innes Russell Of Perth
R: strathspey
M: 4/4
K: Gmajor
|:(3FGA|G2 D>G B,>GG,>G|D2 (3FGA B<GG<B|
[1 A2 E>A c2 (3BAG|F<DF<A c>A:|
[2 c>Af>e d<gd<D|(3FGA (3cBA G2 (3GBd||
g2 (3Bcd g>de>d|B<GB<d g>fe<d|
c2 (3Ace a>gf>e|c<Aa>g f<dd>c|
(3BcB G>B g2 (3fed|B<G (3Bcd g2 B<G|
c>Af>e d<gd<G|(3fed (3cBA G2||

